source/assets/images/flags/Vanuatu.svg

<svg viewBox="0 0 2500 1500" xmlns="http://www.w3.org/2000/svg" fill-rule="evenodd" clip-rule="evenodd" stroke-linejoin="round" stroke-miterlimit="1.414"><path fill="#D41F36" fill-rule="nonzero" d="M0 0h2500.002v750H0z"/><path fill="#0B9648" fill-rule="nonzero" d="M0 750h2500.002v750H0z"/><path d="M1194.45 884.21L0 1500V0l1194.45 615.792h1305.552V884.21h-1305.55z" fill="#030404"/><path d="M1171.47 789.472L0 1393.412V106.584l1171.46 603.94h1328.542v78.947h-1328.53z" fill="#FCCF10"/><path d="M0 1304.593L1075.743 750 0 195.41v1109.185z" fill="#030404" fill-rule="nonzero"/><path d="M303.896 893.484v85.463c74.35 0 220.263-56.975 220.263-240.41 0-183.437-155.643-217.487-202.197-217.487S131.58 554.405 131.58 704.488c0 150.084 141.05 163.984 168.84 163.984 27.793 0 132.022-25.017 120.21-137.58 0 31.963-36.13 99.363-111.87 99.363-75.74 0-122.985-56.284-122.985-111.867 0-55.592 45.86-129.938 125.763-129.938 79.904 0 138.27 70.87 138.27 142.442 0 71.567-56.28 162.592-145.912 162.592" fill="#FCCF10" fill-rule="nonzero"/><path d="M293.045 707.145c1.392-1.47 2.796-2.927 4.212-4.372-.04-1.905-.034-4.512.152-7.317-1.15-.61-2.092-1.264-2.746-1.96.063 4.027-.875 9.772-1.62 13.65zm41.54 0c-.742-3.877-1.68-9.623-1.617-13.648-.655.695-1.597 1.348-2.745 1.96.186 2.804.192 5.41.152 7.315 1.415 1.446 2.82 2.903 4.21 4.372zm-32.658-.264c2.387-.71 5.427-1.555 8.192-2.135.345-.687 1.763-.81 3.696-.612 1.932-.2 3.35-.075 3.696.612 2.766.58 5.805 1.424 8.192 2.136l-.504-.518c-1.592-1.636-3.2-3.256-4.823-4.86-1.75-.266-4.047-.645-6.56-1.133-2.516.487-4.813.866-6.562 1.13-1.795 1.776-3.57 3.57-5.328 5.38zm16.91-16.33c.006.334.01.653.01.954l.134.126c1.084-.29 2.218-.58 3.358-.844-.166-.976-.32-1.97-.448-2.946h-.022c-1.015.898-2.026 1.802-3.03 2.71zm-10.187 1.08l.135-.126c0-.302.004-.62.01-.953-1.006-.908-2.016-1.812-3.032-2.71h-.022c-.127.977-.28 1.97-.446 2.946 1.14.265 2.274.553 3.356.844zm23.475-12.515c6.523-1.347 18-3.083 15.547 2.012-1.893 3.93-10.95 5.584-18.57 6.277.17.72.32 1.456.45 2.204 1.726-.095 3.11.057 3.85.593.49-1.44 1.448-1.915 3.1-.736 5.59 3.994 5.368 18.54 4.958 25.125 1.49 1.656 2.968 3.326 4.43 5.008-1.72-8.127-4.39-23.96 2.078-19.45 6.66 4.64 5.814 20.854 5.095 27.925 1.443 1.752 2.872 3.516 4.286 5.29-.922-8.002-2.276-24.768 3.122-20.97 5.59 3.935 3.78 21.51 2.8 28.574 1.21 1.593 2.413 3.193 3.603 4.802-.7-8.35-1.676-26.907 4.018-22.43 5.78 4.535 2.9 22.63 1.447 29.973 1.016 1.43 2.023 2.868 3.02 4.312-.812-9.495-1.71-29.13 5.7-21.52 7.626 7.835 2.366 23.5-.162 29.698l.37.557c3.093 4.686 6.1 9.427 9.037 14.212l1.406 2.298-8.182 5.296c-.36-.816-.72-1.633-1.085-2.448-.137-.3-.274-.597-.414-.894-1.468-3.108-3.062-6.156-4.715-9.168-.368-.67-.74-1.34-1.114-2.006-7.654-2.002-27.14-7.658-26.932-13.31.204-5.463 15.63 2.104 22.526 5.766-.443-.73-.89-1.46-1.34-2.186-.376-.61-.755-1.218-1.137-1.825-6.513-1.698-24.388-6.94-26.3-13.743-1.762-6.267 13.4 1.45 21.043 5.672-.992-1.472-1.995-2.935-3.01-4.39-6.76-2.434-22.456-8.663-24.29-14.57-1.63-5.26 9.24-.293 15.994 3.21-1.106-1.45-2.224-2.89-3.354-4.324-7.002-1.95-23.088-7.106-25.928-13.998-2.677-6.5 10.63.18 17.91 4.203-2-2.357-4.033-4.688-6.096-6.99-5.02-.844-15.122-3.032-21.47-7.707-6.35 4.675-16.45 6.863-21.47 7.705-2.063 2.304-4.096 4.634-6.097 6.99 7.282-4.022 20.587-10.702 17.91-4.2-2.84 6.89-18.925 12.047-25.928 13.997-.34.43-.678.86-1.015 1.293-.785 1.007-1.565 2.017-2.34 3.032 6.756-3.504 17.625-8.472 15.995-3.21-1.834 5.906-17.53 12.134-24.29 14.57l-.28.4c-.92 1.323-1.83 2.652-2.73 3.988 7.642-4.22 22.805-11.938 21.042-5.67-1.91 6.802-19.786 12.044-26.3 13.742-.58.924-1.157 1.852-1.728 2.783-.25.41-.5.818-.748 1.228 6.896-3.662 22.322-11.23 22.526-5.767.207 5.652-19.278 11.308-26.934 13.31-.503.895-1 1.794-1.49 2.695-.85 1.565-1.684 3.14-2.492 4.726-.737 1.446-1.452 2.9-2.133 4.373l-.126.275c-.367.815-.725 1.632-1.086 2.448l-8.183-5.296c.7-1.142 1.398-2.285 2.1-3.426 2.833-4.592 5.735-9.142 8.713-13.64-2.528-6.2-7.787-21.864-.16-29.698 7.41-7.612 6.51 12.022 5.697 21.518 1-1.443 2.006-2.88 3.02-4.312-1.45-7.34-4.33-25.437 1.45-29.973 5.692-4.477 4.717 14.08 4.016 22.43 1.19-1.61 2.393-3.21 3.605-4.803-.98-7.065-2.79-24.64 2.8-28.574 5.398-3.8 4.044 12.97 3.122 20.973.936-1.175 1.878-2.345 2.826-3.51.485-.595.972-1.19 1.46-1.783-.718-7.07-1.563-23.284 5.096-27.925 6.468-4.51 3.798 11.322 2.077 19.45 1.464-1.682 2.94-3.352 4.43-5.01-.408-6.584-.63-21.13 4.96-25.124 1.65-1.18 2.608-.704 3.1.737.74-.535 2.124-.687 3.85-.592.13-.747.28-1.485.45-2.204-7.622-.693-16.677-2.346-18.57-6.277-2.453-5.095 9.023-3.36 15.545-2.012-1.53-1.252-3.07-2.492-4.62-3.718-6.446-.08-20.764-.74-23.17-4.954-2.206-3.86 8.943-2.145 15.702-.8-1.23-.923-2.47-1.838-3.713-2.745-6.48.114-20.983-.162-23.194-4.792-1.952-4.082 8.416-2.364 15.232-.85-1.495-1.03-2.997-2.048-4.507-3.054-9.392-1.196-30.418-4.398-28.184-8.863 1.575-3.15 9.434-1.19 16.202 1.216-.364-.222-.727-.444-1.092-.665l-7.643-4.62.782-1.365c-3.192-2.652-5.384-5.613-3.82-8.116 2.867-4.588 9.658 5.122 13.074 10.625.95.51 1.9 1.02 2.848 1.532.49.266.98.534 1.47.802l.407.225c-3.844-5.064-8.584-12.214-3.99-11.365 5.073.94 10.957 11.363 13.845 17.106.403.247.806.496 1.207.746.79.49 1.578.987 2.363 1.487-4.172-6.538-10.03-16.78-4.645-15.17 5.855 1.76 10.69 14.345 12.744 20.542 1.245.858 2.482 1.727 3.712 2.605-3.45-6.44-8.157-16.61-2.386-14.81 6.292 1.97 9.466 14.767 10.645 20.93.577.442 1.153.888 1.727 1.335.823.642 1.643 1.287 2.46 1.937-2.75-7.013-7.044-19.654-1.544-17.947 5.79 1.797 8.213 17.06 9.03 24.094.975.826 1.945 1.657 2.91 2.494.097-.692.21-1.39.338-2.086-2.155-6.66-3.792-14.5 1.53-11.993.984.464 1.842 1.14 2.59 1.98.748-.84 1.606-1.516 2.59-1.98 5.32-2.505 3.685 5.335 1.53 11.994.13.696.24 1.394.337 2.087.965-.836 1.936-1.667 2.91-2.493.818-7.035 3.242-22.297 9.03-24.094 5.5-1.707 1.205 10.934-1.543 17.947 1.387-1.104 2.782-2.195 4.187-3.275 1.18-6.162 4.353-18.958 10.644-20.927 5.773-1.8 1.065 8.37-2.385 14.81 1.23-.88 2.468-1.747 3.712-2.605 2.055-6.197 6.89-18.784 12.745-20.542 5.385-1.61-.474 8.633-4.646 15.17 1.184-.754 2.374-1.5 3.57-2.233 2.89-5.743 8.773-16.167 13.847-17.107 4.592-.85-.147 6.3-3.99 11.364l.915-.503c1.265-.69 2.538-1.373 3.81-2.055 3.416-5.503 10.207-15.213 13.073-10.626 1.565 2.502-.626 5.463-3.818 8.115l.782 1.365c-2.73 1.65-5.464 3.3-8.192 4.955l-.543.332c6.766-2.407 14.626-4.366 16.2-1.218 2.234 4.464-18.79 7.666-28.183 8.862l-.248.164c-1.427.953-2.847 1.915-4.26 2.89 6.816-1.514 17.184-3.232 15.232.85-2.212 4.63-16.715 4.906-23.194 4.792-1.244.907-2.482 1.822-3.714 2.745 6.76-1.345 17.908-3.06 15.704.8-2.408 4.215-16.726 4.874-23.174 4.954-1.55 1.226-3.09 2.466-4.62 3.718z" fill="#FCCF10"/></svg>

<?xml version="1.0" standalone="no"?>
<!DOCTYPE svg PUBLIC "-//W3C//DTD SVG 1.1//EN" "http://www.w3.org/Graphics/SVG/1.1/DTD/svg11.dtd">
<svg width="100%" height="100%" viewBox="0 0 2500 1500" version="1.1" xmlns="http://www.w3.org/2000/svg" xmlns:xlink="http://www.w3.org/1999/xlink" xml:space="preserve" style="fill-rule:evenodd;clip-rule:evenodd;stroke-linejoin:round;stroke-miterlimit:1.41421;">
    <g id="Layer 1" transform="matrix(4.16667,0,0,4.16667,0,0)">
        <rect x="0" y="0" width="600" height="180" style="fill:rgb(212,31,54);fill-rule:nonzero;"/>
        <rect x="0" y="180" width="600" height="180" style="fill:rgb(11,150,72);fill-rule:nonzero;"/>
        <g transform="matrix(0.24,0,0,0.24,0,0)">
            <path d="M1194.45,884.208L0,1500L0,0L1194.45,615.792L2500,615.792L2500,884.208L1194.45,884.208Z" style="fill:rgb(3,4,4);"/>
        </g>
        <g transform="matrix(0.24,0,0,0.24,0,0)">
            <path d="M1171.47,789.471L0,1393.41L0,106.585L1171.46,710.525L2500,710.525L2500,789.471L1171.47,789.471Z" style="fill:rgb(252,207,16);"/>
        </g>
        <path d="M0,313.102L258.178,180L0,46.898L0,313.102Z" style="fill:rgb(3,4,4);fill-rule:nonzero;"/>
        <g>
            <path d="M72.935,214.436L72.935,234.947C90.779,234.947 125.798,221.273 125.798,177.249C125.798,133.224 88.444,125.052 77.271,125.052C66.098,125.052 31.579,133.057 31.579,169.077C31.579,205.097 65.431,208.433 72.101,208.433C78.771,208.433 103.786,202.429 100.951,175.414C100.951,183.085 92.28,199.261 74.102,199.261C55.925,199.261 44.586,185.753 44.586,172.413C44.586,159.071 55.592,141.228 74.769,141.228C93.946,141.228 107.954,158.237 107.954,175.414C107.954,192.59 94.447,214.436 72.935,214.436" style="fill:rgb(252,207,16);fill-rule:nonzero;"/>
            <g transform="matrix(0.24,0,0,0.24,0,0)">
                <path d="M293.045,707.144C294.437,705.675 295.841,704.217 297.257,702.772C297.217,700.867 297.223,698.26 297.409,695.455C296.26,694.844 295.318,694.191 294.664,693.496C294.727,697.522 293.789,703.267 293.045,707.144ZM334.586,707.143C333.843,703.267 332.905,697.521 332.968,693.496C332.313,694.191 331.371,694.844 330.223,695.455C330.409,698.26 330.415,700.866 330.375,702.771C331.79,704.217 333.194,705.674 334.586,707.143ZM301.927,706.88C304.314,706.168 307.354,705.324 310.119,704.744C310.465,704.057 311.883,703.933 313.816,704.132C315.748,703.933 317.167,704.057 317.512,704.744C320.278,705.324 323.317,706.168 325.704,706.88L325.2,706.361C323.608,704.725 322,703.105 320.377,701.5C318.628,701.235 316.33,700.856 313.816,700.368C311.301,700.856 309.004,701.235 307.255,701.5C305.46,703.275 303.684,705.068 301.927,706.88ZM318.837,690.55C318.843,690.883 318.846,691.202 318.847,691.503L318.981,691.629C320.064,691.338 321.198,691.05 322.338,690.785C322.172,689.809 322.019,688.816 321.89,687.839L321.868,687.84C320.853,688.737 319.842,689.641 318.837,690.55ZM308.65,691.629L308.785,691.503C308.786,691.201 308.789,690.883 308.795,690.55C307.789,689.641 306.779,688.737 305.763,687.84L305.741,687.839C305.613,688.816 305.46,689.809 305.294,690.785C306.433,691.05 307.568,691.338 308.65,691.629ZM332.125,679.114C338.648,677.767 350.125,676.031 347.672,681.126C345.779,685.057 336.723,686.71 329.102,687.403C329.272,688.122 329.421,688.859 329.551,689.607C331.278,689.512 332.661,689.664 333.401,690.2C333.893,688.759 334.85,688.284 336.501,689.463C342.091,693.457 341.87,708.003 341.46,714.588C342.951,716.245 344.428,717.915 345.891,719.597C344.169,711.47 341.5,695.637 347.968,700.147C354.627,704.788 353.782,721.001 353.063,728.072C354.506,729.824 355.935,731.588 357.349,733.363C356.428,725.36 355.074,708.594 360.472,712.392C366.061,716.327 364.252,733.901 363.271,740.966C364.483,742.559 365.685,744.159 366.875,745.768C366.174,737.419 365.199,718.862 370.893,723.338C376.672,727.874 373.792,745.97 372.34,753.312C373.356,754.743 374.363,756.18 375.361,757.624C374.548,748.129 373.649,728.493 381.06,736.105C388.686,743.939 383.426,759.605 380.898,765.802L381.267,766.359C384.361,771.045 387.369,775.786 390.305,780.571L391.711,782.869C388.983,784.634 386.256,786.4 383.528,788.165C383.167,787.349 382.808,786.532 382.443,785.717C382.306,785.418 382.169,785.12 382.029,784.823C380.562,781.715 378.968,778.667 377.315,775.655C376.947,774.984 376.576,774.316 376.201,773.649C368.546,771.647 349.06,765.991 349.268,760.338C349.472,754.876 364.898,762.443 371.794,766.105C371.351,765.374 370.905,764.646 370.455,763.919C370.078,763.309 369.699,762.701 369.317,762.094C362.804,760.396 344.929,755.154 343.018,748.351C341.255,742.084 356.418,749.802 364.06,754.023C363.068,752.551 362.065,751.088 361.049,749.634C354.291,747.199 338.594,740.97 336.76,735.063C335.129,729.802 345.999,734.77 352.754,738.274C351.648,736.823 350.53,735.382 349.4,733.949C342.398,732 326.312,726.843 323.472,719.951C320.795,713.45 334.101,720.131 341.383,724.154C339.382,721.797 337.349,719.466 335.286,717.163C330.267,716.32 320.164,714.132 313.816,709.457C307.467,714.132 297.365,716.32 292.345,717.162C290.283,719.466 288.25,721.796 286.249,724.153C293.532,720.13 306.837,713.45 304.16,719.951C301.32,726.843 285.235,731.999 278.232,733.949C277.893,734.379 277.554,734.81 277.217,735.242C276.432,736.249 275.652,737.259 274.878,738.274C281.633,734.77 292.502,729.802 290.872,735.063C289.038,740.97 273.341,747.198 266.583,749.634L266.303,750.035C265.383,751.357 264.472,752.686 263.573,754.022C271.214,749.801 286.377,742.084 284.614,748.351C282.703,755.154 264.828,760.396 258.315,762.094C257.733,763.018 257.157,763.946 256.586,764.877C256.336,765.286 256.086,765.695 255.838,766.105C262.734,762.443 278.16,754.876 278.364,760.338C278.571,765.991 259.086,771.647 251.43,773.649C250.927,774.544 250.431,775.443 249.94,776.344C249.089,777.909 248.256,779.483 247.448,781.07C246.711,782.515 245.996,783.97 245.315,785.442L245.189,785.717C244.823,786.532 244.465,787.349 244.104,788.165L235.921,782.869C236.62,781.727 237.318,780.584 238.02,779.443C240.853,774.851 243.755,770.301 246.733,765.802C244.205,759.604 238.946,743.939 246.572,736.105C253.982,728.493 253.083,748.127 252.27,757.623C253.269,756.18 254.276,754.743 255.291,753.311C253.84,745.97 250.959,727.874 256.739,723.338C262.432,718.862 261.457,737.419 260.756,745.768C261.947,744.16 263.149,742.559 264.361,740.966C263.38,733.901 261.57,716.327 267.16,712.392C272.558,708.593 271.204,725.361 270.282,733.365C271.218,732.19 272.16,731.02 273.108,729.856C273.593,729.26 274.08,728.665 274.569,728.072C273.85,721.001 273.005,704.788 279.664,700.147C286.132,695.637 283.462,711.469 281.741,719.597C283.204,717.915 284.681,716.245 286.171,714.588C285.762,708.003 285.541,693.457 291.13,689.463C292.781,688.284 293.738,688.759 294.231,690.2C294.97,689.664 296.354,689.512 298.081,689.607C298.211,688.86 298.359,688.122 298.529,687.403C290.908,686.71 281.853,685.057 279.96,681.126C277.507,676.031 288.983,677.767 295.505,679.114C293.976,677.862 292.436,676.622 290.886,675.396C284.439,675.316 270.121,674.657 267.714,670.442C265.509,666.583 276.658,668.297 283.417,669.642C282.186,668.719 280.948,667.804 279.704,666.897C273.224,667.011 258.721,666.735 256.51,662.105C254.558,658.023 264.926,659.741 271.742,661.254C270.247,660.224 268.745,659.207 267.235,658.201C257.843,657.005 236.817,653.803 239.051,649.338C240.625,646.19 248.484,648.149 255.252,650.555C254.888,650.333 254.525,650.111 254.16,649.89L246.517,645.269L247.299,643.904C244.108,641.252 241.916,638.291 243.48,635.788C246.347,631.201 253.138,640.911 256.554,646.414C257.504,646.924 258.454,647.433 259.402,647.946C259.892,648.212 260.382,648.48 260.871,648.748L261.279,648.974C257.436,643.91 252.696,636.76 257.289,637.609C262.363,638.549 268.247,648.972 271.135,654.715C271.538,654.962 271.941,655.211 272.342,655.461C273.132,655.952 273.92,656.448 274.705,656.948C270.533,650.411 264.675,640.168 270.06,641.78C275.915,643.538 280.749,656.124 282.804,662.321C284.049,663.179 285.286,664.048 286.516,664.926C283.067,658.487 278.359,648.316 284.13,650.117C290.422,652.086 293.596,664.883 294.775,671.045C295.352,671.488 295.928,671.934 296.502,672.381C297.325,673.023 298.145,673.668 298.961,674.318C296.213,667.306 291.918,654.665 297.418,656.372C303.207,658.169 305.631,673.431 306.448,680.466C307.423,681.292 308.393,682.123 309.359,682.96C309.455,682.267 309.567,681.569 309.696,680.873C307.541,674.214 305.904,666.374 311.226,668.88C312.21,669.343 313.068,670.02 313.816,670.86C314.564,670.02 315.422,669.343 316.405,668.88C321.727,666.374 320.091,674.214 317.935,680.873C318.065,681.569 318.177,682.267 318.273,682.96C319.238,682.123 320.209,681.292 321.184,680.466C322.001,673.431 324.425,658.169 330.214,656.372C335.713,654.665 331.418,667.306 328.67,674.319C330.057,673.215 331.452,672.124 332.857,671.044C334.036,664.882 337.21,652.086 343.501,650.117C349.273,648.316 344.565,658.487 341.115,664.926C342.346,664.048 343.583,663.18 344.827,662.322C346.882,656.125 351.717,643.538 357.572,641.78C362.957,640.168 357.098,650.412 352.926,656.949C354.11,656.195 355.3,655.45 356.496,654.716C359.385,648.973 365.269,638.549 370.343,637.609C374.935,636.76 370.196,643.909 366.354,648.973C366.658,648.805 366.963,648.637 367.268,648.47C368.533,647.778 369.806,647.096 371.077,646.414C374.494,640.911 381.285,631.201 384.151,635.788C385.715,638.291 383.524,641.252 380.332,643.904L381.114,645.269C378.384,646.92 375.65,648.568 372.922,650.224L372.379,650.556C379.146,648.149 387.006,646.19 388.58,649.338C390.814,653.803 369.789,657.005 360.397,658.201L360.149,658.365C358.723,659.318 357.303,660.28 355.89,661.254C362.706,659.741 373.074,658.023 371.122,662.105C368.91,666.735 354.407,667.011 347.928,666.897C346.684,667.804 345.446,668.719 344.214,669.642C350.974,668.297 362.122,666.583 359.918,670.442C357.51,674.657 343.192,675.316 336.744,675.396C335.194,676.622 333.655,677.862 332.125,679.114Z" style="fill:rgb(252,207,16);"/>
            </g>
        </g>
    </g>
</svg>
